assets/img/i-d-calidad.svg

<svg width="90" height="90" viewBox="0 0 90 90" fill="none" xmlns="http://www.w3.org/2000/svg">
<g clip-path="url(#clip0)">
<path d="M87.0654 53.0901C88.7401 53.0901 90.0977 51.8547 90.0977 50.3308C90.0977 48.8068 88.7401 47.5714 87.0654 47.5714C85.3908 47.5714 84.0332 48.8068 84.0332 50.3308C84.0332 51.8547 85.3908 53.0901 87.0654 53.0901Z" fill="#9D3BFF"/>
<path d="M81.3595 66.3428C84.1566 66.3428 86.4241 64.2794 86.4241 61.734C86.4241 59.1887 84.1566 57.1252 81.3595 57.1252C78.5624 57.1252 76.2949 59.1887 76.2949 61.734C76.2949 64.2794 78.5624 66.3428 81.3595 66.3428Z" fill="#00C4D1"/>
<path d="M16.791 6.36921C18.4657 6.36921 19.8233 5.13381 19.8233 3.60987C19.8233 2.08592 18.4657 0.850525 16.791 0.850525C15.1164 0.850525 13.7588 2.08592 13.7588 3.60987C13.7588 5.13381 15.1164 6.36921 16.791 6.36921Z" fill="#00C4D1"/>
<path d="M6.173 17.8715C8.97011 17.8715 11.2376 15.808 11.2376 13.2627C11.2376 10.7173 8.97011 8.65387 6.173 8.65387C3.3759 8.65387 1.1084 10.7173 1.1084 13.2627C1.1084 15.808 3.3759 17.8715 6.173 17.8715Z" fill="#9D3BFF"/>
<path d="M60.4713 33.6956C60.2764 33.1446 59.8926 32.6649 59.3763 32.3267C58.86 31.9886 58.2382 31.8098 57.6021 31.8165H49.4509L46.9621 24.7253C46.7673 24.1817 46.3886 23.7081 45.88 23.3722C45.3715 23.0364 44.7593 22.8555 44.1309 22.8555C43.5026 22.8555 42.8904 23.0364 42.3818 23.3722C41.8733 23.7081 41.4945 24.1817 41.2998 24.7253L38.7783 31.7769H30.6271C29.9856 31.7638 29.3565 31.9395 28.8337 32.278C28.3108 32.6166 27.922 33.0997 27.7254 33.6556C27.5287 34.2114 27.5346 34.8102 27.7421 35.3627C27.9497 35.9153 28.3479 36.3921 28.8773 36.722L35.4635 41.0835L32.9529 48.1352C32.7575 48.6808 32.7574 49.2688 32.9527 49.8145C33.148 50.3601 33.5286 50.8353 34.0398 51.1715C34.5488 51.5113 35.1636 51.6946 35.795 51.6946C36.4263 51.6946 37.0412 51.5113 37.5502 51.1715L44.1472 46.8099L50.7334 51.1715C51.2426 51.5105 51.8569 51.6936 52.4878 51.6944C53.1187 51.6952 53.7336 51.5136 54.2438 51.1759C54.754 50.8381 55.1331 50.3617 55.3265 49.8152C55.5199 49.2687 55.5175 48.6804 55.3198 48.1352L52.8092 41.0835L59.3954 36.722C59.905 36.3872 60.2841 35.9132 60.4776 35.369C60.671 34.8248 60.6689 34.2386 60.4713 33.6956ZM39.8217 41.4693C40.0189 40.9238 40.0198 40.3353 39.8244 39.7892C39.6289 39.2432 39.2473 38.7681 38.7348 38.433L34.6375 35.7231H39.7021C40.3335 35.7266 40.9495 35.546 41.4599 35.2079C41.9703 34.8698 42.3484 34.3918 42.5387 33.844L44.1146 29.4627L45.6797 33.844C45.87 34.3918 46.248 34.8698 46.7585 35.2079C47.2689 35.546 47.8849 35.7266 48.5163 35.7231H53.5809L49.4835 38.433C48.9711 38.7681 48.5895 39.2432 48.394 39.7892C48.1986 40.3353 48.1995 40.9238 48.3967 41.4693L49.9944 45.8506L45.897 43.1407C45.3854 42.8066 44.7715 42.6269 44.1418 42.6269C43.5121 42.6269 42.8982 42.8066 42.3866 43.1407L38.2892 45.8506L39.8217 41.4693Z" fill="#00C4D1"/>
<path d="M74.665 80.644L64.1228 56.6703C67.9957 53.0941 70.6252 48.5589 71.683 43.631C72.7407 38.7031 72.1798 33.6009 70.0703 28.9613C67.9608 24.3217 64.3962 20.3504 59.8215 17.5432C55.2468 14.736 49.8648 13.2173 44.3473 13.1767C38.8299 13.1361 33.4216 14.5754 28.7976 17.3149C24.1736 20.0544 20.5389 23.9728 18.3472 28.5807C16.1556 33.1886 15.5041 38.2819 16.4741 43.2248C17.4441 48.1676 19.9927 52.7409 23.8016 56.3736L13.1507 80.644C12.9412 81.1215 12.8914 81.6446 13.0074 82.1478C13.1234 82.651 13.4001 83.1119 13.8028 83.4725C14.2019 83.832 14.7093 84.0756 15.2607 84.1725C15.8121 84.2693 16.3827 84.215 16.9002 84.0165L25.1166 80.9209L28.7249 88.3187C28.9528 88.7754 29.3194 89.1633 29.7816 89.4366C30.2437 89.71 30.7821 89.8574 31.3333 89.8615H31.3876C31.9532 89.852 32.5029 89.69 32.9673 89.396C33.4316 89.102 33.7896 88.6892 33.996 88.2099L43.9078 65.6209L53.8197 88.2099C54.0261 88.6892 54.3841 89.102 54.8484 89.396C55.3127 89.69 55.8625 89.852 56.4281 89.8615C56.9795 89.8586 57.5185 89.7117 57.9809 89.4382C58.4432 89.1647 58.8096 88.7761 59.0364 88.3187L62.6447 80.9209L70.9154 84.0659C71.4329 84.2645 72.0035 84.3188 72.5549 84.2219C73.1063 84.1251 73.6138 83.8815 74.0129 83.522C74.4264 83.1572 74.7098 82.6877 74.8261 82.1744C74.9424 81.6611 74.8863 81.1278 74.665 80.644ZM28.6488 60.0725L29.2683 60.4385L30.0073 60.844L30.529 61.111C30.8659 61.289 31.2137 61.4571 31.5615 61.6154L31.8332 61.7341C32.7902 62.1585 33.7736 62.5317 34.7785 62.8517H34.9198C35.3654 63 35.811 63.1286 36.2566 63.2473L36.5283 63.3165C36.9413 63.4253 37.3543 63.5143 37.7673 63.6033L38.0933 63.6725C38.4954 63.7615 38.9084 63.8308 39.3214 63.9H39.5497L31.2898 82.6912L27.6272 75.1846L19.2912 78.3396L27.6381 59.311L28.138 59.6176L28.6488 60.0725ZM56.2542 56.8978L56.0911 56.9769C55.8629 57.1055 55.6238 57.2341 55.3738 57.3527L54.9934 57.5407L54.4935 57.778L53.9284 58.0253L53.624 58.1538L52.885 58.4407H52.7763C50.2583 59.3536 47.5843 59.859 44.8751 59.9341H44.1361H43.0492H42.5276H41.9407L41.2994 59.8352L40.8104 59.7758L40.2126 59.6868L39.7996 59.6176L39.1258 59.489L38.778 59.4198L38.039 59.2516L37.7673 59.1824L37.0065 58.9747L36.8326 58.9253C35.9455 58.6439 35.0781 58.3136 34.2351 57.9363H34.1264L33.6156 57.6989L33.1374 57.4813L32.7461 57.2835L32.1701 56.9769L31.8767 56.8088L31.2137 56.4231L30.9963 56.2945L30.2682 55.8198L30.1377 55.7308L29.3444 55.167H29.29C25.4797 52.3022 22.7687 48.4094 21.5483 44.0509C20.3279 39.6923 20.6614 35.0936 22.5006 30.9188C24.3398 26.744 27.5895 23.2092 31.7804 20.8248C35.9714 18.4404 40.8867 17.3299 45.8165 17.6536C50.7463 17.9772 55.4355 19.7184 59.2069 22.6255C62.9783 25.5327 65.6368 29.4554 66.7984 33.8272C67.9599 38.199 67.5646 42.7936 65.6693 46.9476C63.774 51.1016 60.4769 54.5999 56.2542 56.9374V56.8978ZM53.0698 62.9901C53.548 62.8418 54.0153 62.6835 54.4826 62.5154L54.6239 62.4659L55.9499 61.9418L56.102 61.8725C56.5585 61.6747 57.0258 61.467 57.4714 61.2396L57.9387 61.0022L58.7104 60.5868C58.9821 60.4385 59.2429 60.2802 59.5038 60.122L59.895 59.8945L60.2863 59.6571L68.5244 78.4484L60.1885 75.2934L56.5259 82.8L48.2986 64.0088C49.9181 63.7942 51.5144 63.4533 53.0698 62.9901Z" fill="#9D3BFF"/>
<path d="M70.4262 15.9626C67.0265 12.6775 62.9212 10.0632 58.3651 8.28188C53.8089 6.5006 48.8991 5.59037 43.9403 5.60766C38.9652 5.62257 34.0456 6.55883 29.481 8.35945C24.9163 10.1601 20.8022 12.7873 17.3891 16.0813C17.0563 16.3836 16.8293 16.7689 16.7369 17.1885C16.6444 17.6081 16.6906 18.0432 16.8697 18.4389C17.0488 18.8347 17.3526 19.1732 17.743 19.412C18.1333 19.6507 18.5926 19.7788 19.0628 19.7802C19.3887 19.7814 19.7113 19.7214 20.0105 19.604C20.3097 19.4865 20.5791 19.3142 20.8018 19.0978C23.7628 16.2314 27.3356 13.9452 31.3014 12.3792C35.2672 10.8131 39.5425 10 43.8656 9.98986C48.1887 9.97967 52.4686 10.7725 56.4432 12.3199C60.4179 13.8673 64.0036 16.1366 66.981 18.989C67.1931 19.1984 67.45 19.3661 67.736 19.4818C68.0219 19.5974 68.3309 19.6586 68.6438 19.6615C68.9556 19.67 69.2661 19.622 69.5572 19.5201C69.8483 19.4182 70.1142 19.2645 70.3393 19.0681C70.5744 18.8723 70.7638 18.6354 70.896 18.3715C71.0282 18.1076 71.1005 17.8221 71.1086 17.5322C71.1167 17.2422 71.0605 16.9538 70.9432 16.6841C70.826 16.4144 70.6501 16.169 70.4262 15.9626Z" fill="#00C4D1"/>
<path d="M19.2912 63.3659L19.802 63.7912C19.9836 63.9273 20.1847 64.0404 20.3997 64.1275L22.2365 59.934C16.9473 55.4278 13.5104 49.4113 12.4963 42.8828C11.4821 36.3544 12.9517 29.7066 16.661 24.0428C16.8209 23.7982 16.9263 23.5273 16.971 23.2456C17.0158 22.9639 16.9991 22.6769 16.9219 22.4011C16.8466 22.1255 16.7117 21.8664 16.5251 21.6389C16.3385 21.4113 16.1039 21.2199 15.8351 21.0758C15.2944 20.7816 14.6475 20.6945 14.0364 20.8335C13.4252 20.9726 12.8995 21.3264 12.5746 21.8176C8.27382 28.3882 6.59359 36.1071 7.81705 43.6735C9.0405 51.2399 13.0928 58.1912 19.2912 63.356V63.3659Z" fill="#00C4D1"/>
<path d="M68.7956 63.3659L68.2739 63.7912C67.9339 64.0704 67.5706 64.325 67.1871 64.5527L65.3721 60.3297C68.6122 57.5629 71.212 54.2347 73.0186 50.5406C74.8253 46.8466 75.8024 42.8612 75.8925 38.8187C75.9042 33.5971 74.3606 28.4703 71.4257 23.9835C71.1014 23.4904 71.0057 22.9002 71.1596 22.3429C71.3135 21.7855 71.7043 21.3066 72.2462 21.0115C72.7881 20.7164 73.4367 20.6293 74.0491 20.7694C74.6616 20.9094 75.1879 21.2651 75.5121 21.7582C79.8068 28.3304 81.4836 36.048 80.2603 43.6129C79.0371 51.1779 74.9886 58.1288 68.7956 63.2967V63.3659Z" fill="#00C4D1"/>
<path d="M74.665 80.644L64.1228 56.6703C67.9957 53.0941 70.6252 48.5589 71.683 43.631C72.7407 38.7031 72.1798 33.6009 70.0703 28.9613C67.9608 24.3217 64.3962 20.3504 59.8215 17.5432C55.2468 14.736 49.8648 13.2173 44.3473 13.1767C38.8299 13.1361 33.4216 14.5754 28.7976 17.3149C24.1736 20.0544 20.5389 23.9728 18.3472 28.5807C16.1556 33.1886 15.5041 38.2819 16.4741 43.2248C17.4441 48.1676 19.9927 52.7409 23.8016 56.3736L13.1507 80.644C12.9412 81.1215 12.8914 81.6446 13.0074 82.1478C13.1234 82.651 13.4001 83.1119 13.8028 83.4725C14.2019 83.832 14.7093 84.0756 15.2607 84.1725C15.8121 84.2693 16.3827 84.215 16.9002 84.0165L25.1166 80.9209L28.7249 88.3187C28.9528 88.7754 29.3194 89.1633 29.7816 89.4366C30.2437 89.71 30.7821 89.8574 31.3333 89.8615H31.3876C31.9532 89.852 32.5029 89.69 32.9673 89.396C33.4316 89.102 33.7896 88.6892 33.996 88.2099L43.9078 65.6209L53.8197 88.2099C54.0261 88.6892 54.3841 89.102 54.8484 89.396C55.3127 89.69 55.8625 89.852 56.4281 89.8615C56.9795 89.8586 57.5185 89.7117 57.9809 89.4382C58.4432 89.1647 58.8096 88.7761 59.0364 88.3187L62.6447 80.9209L70.9154 84.0659C71.4329 84.2645 72.0035 84.3188 72.5549 84.2219C73.1063 84.1251 73.6138 83.8815 74.0129 83.522C74.4264 83.1572 74.7098 82.6877 74.8261 82.1744C74.9424 81.6611 74.8863 81.1278 74.665 80.644ZM31.2463 82.8L27.5837 75.2934L19.2478 78.4484L27.5946 59.4198L28.0945 59.7264L28.6488 60.0725L29.2683 60.4385L30.0073 60.844L30.529 61.111C30.8659 61.289 31.2137 61.4571 31.5615 61.6154L31.8332 61.7341C32.7902 62.1585 33.7736 62.5317 34.7785 62.8517H34.9198C35.3654 63 35.811 63.1286 36.2566 63.2473L36.5283 63.3165C36.9413 63.4253 37.3543 63.5143 37.7673 63.6033L38.0933 63.6725C38.4954 63.7615 38.9084 63.8308 39.3214 63.9H39.5497L31.2463 82.8ZM44.7664 59.9835H44.1361H43.0492H42.5276H41.9407L41.2994 59.8352L40.8104 59.7758L40.2126 59.6868L39.7996 59.6176L39.1258 59.489L38.778 59.4198L38.039 59.2516L37.7673 59.1824L37.0065 58.9747L36.8326 58.9253C35.9455 58.6439 35.0781 58.3136 34.2351 57.9363H34.1264L33.6156 57.6989L33.1374 57.4813L32.7461 57.2835L32.1701 56.9769L31.8767 56.8088L31.2137 56.4231L30.9963 56.2945L30.2682 55.8198L30.1377 55.7308L29.3444 55.167H29.29C25.4797 52.3022 22.7687 48.4094 21.5483 44.0509C20.3279 39.6923 20.6614 35.0936 22.5006 30.9188C24.3398 26.744 27.5895 23.2092 31.7804 20.8248C35.9714 18.4404 40.8867 17.3299 45.8165 17.6536C50.7463 17.9772 55.4355 19.7184 59.2069 22.6255C62.9783 25.5327 65.6368 29.4554 66.7984 33.8272C67.9599 38.199 67.5646 42.7936 65.6693 46.9476C63.774 51.1016 60.4769 54.5999 56.2542 56.9374L56.0911 57.0165C55.8629 57.1451 55.6238 57.2736 55.3738 57.3923L54.9934 57.5802L54.4935 57.8176L53.9284 58.0648L53.624 58.1934L52.885 58.4802H52.7763C50.2583 59.3932 47.5843 59.8986 44.8751 59.9736L44.7664 59.9835ZM60.2319 75.2934L56.5693 82.8L48.3421 64.0088C49.9478 63.7823 51.5295 63.4315 53.0698 62.9604C53.548 62.8121 54.0153 62.6538 54.4826 62.4857L54.6239 62.4363L55.9499 61.9121L56.102 61.8429C56.5585 61.6451 57.0258 61.4374 57.4714 61.2099L57.9387 60.9725L58.7104 60.5571C58.9821 60.4088 59.2429 60.2505 59.5038 60.0923L59.895 59.8648L60.2863 59.6275L68.5244 78.4187L60.2319 75.2934Z" fill="#9D3BFF"/>
</g>
<defs>
<clipPath id="clip0">
<rect width="90" height="90" fill="white"/>
</clipPath>
</defs>
</svg>

<svg xmlns="http://www.w3.org/2000/svg" width="90" height="90" fill="none" xmlns:v="https://vecta.io/nano"><g clip-path="url(#A)"><path d="M87.065 53.1c1.675 0 3.032-1.235 3.032-2.76s-1.358-2.76-3.032-2.76-3.032 1.235-3.032 2.76 1.358 2.76 3.032 2.76z" fill="#9d3bff"/><g fill="#00c4d1"><path d="M81.36 66.343c2.797 0 5.065-2.063 5.065-4.6s-2.267-4.6-5.065-4.6-5.065 2.063-5.065 4.6 2.267 4.6 5.065 4.6zM16.8 6.37c1.675 0 3.032-1.235 3.032-2.76S18.466.85 16.8.85s-3.03 1.236-3.03 2.75 1.358 2.76 3.032 2.76z"/></g><path d="M6.173 17.872c2.797 0 5.065-2.064 5.065-4.61s-2.267-4.61-5.065-4.61-5.065 2.063-5.065 4.61 2.268 4.61 5.065 4.61z" fill="#9d3bff"/><path d="M60.47 33.696a2.74 2.74 0 0 0-1.095-1.369c-.516-.338-1.138-.517-1.774-.5h-8.15l-2.49-7.09a2.74 2.74 0 0 0-1.082-1.353 3.18 3.18 0 0 0-1.749-.517 3.18 3.18 0 0 0-1.749.517 2.74 2.74 0 0 0-1.082 1.353l-2.52 7.052h-8.15a3.19 3.19 0 0 0-1.793.501c-.523.34-.912.822-1.108 1.378a2.48 2.48 0 0 0 .017 1.707c.208.553.606 1.03 1.135 1.36l6.586 4.36-2.51 7.052a2.48 2.48 0 0 0 0 1.679 2.74 2.74 0 0 0 1.087 1.357c.51.34 1.124.523 1.755.523a3.17 3.17 0 0 0 1.755-.523l6.597-4.362 6.586 4.362a3.18 3.18 0 0 0 1.754.523 3.18 3.18 0 0 0 1.756-.519c.5-.338.89-.814 1.083-1.36a2.48 2.48 0 0 0-.007-1.68l-2.51-7.052 6.586-4.36a2.72 2.72 0 0 0 1.082-1.353 2.46 2.46 0 0 0-.006-1.673zm-20.65 7.774a2.47 2.47 0 0 0 .003-1.68 2.73 2.73 0 0 0-1.09-1.356l-4.097-2.7h5.065a3.16 3.16 0 0 0 1.758-.515c.5-.338.89-.816 1.08-1.364l1.576-4.38 1.565 4.38c.2.548.568 1.026 1.08 1.364a3.16 3.16 0 0 0 1.758.515h5.065l-4.097 2.7c-.512.335-.894.8-1.1 1.356a2.47 2.47 0 0 0 .003 1.68l1.598 4.38-4.097-2.7c-.512-.334-1.125-.514-1.755-.514s-1.244.18-1.755.514l-4.097 2.7 1.532-4.38z" fill="#00c4d1"/><path d="M74.665 80.644L64.123 56.67c3.873-3.576 6.502-8.11 7.56-13.04s.497-10.03-1.613-14.67-5.674-8.61-10.25-11.418-9.957-4.326-15.474-4.366-10.926 1.4-15.55 4.138-8.26 6.658-10.45 11.266-2.843 9.7-1.873 14.644 3.52 9.516 7.328 13.15l-10.65 24.27a2.39 2.39 0 0 0-.143 1.504c.116.503.393.964.795 1.325s.907.603 1.458.7a3.1 3.1 0 0 0 1.64-.156l8.216-3.096 3.608 7.398c.228.457.595.845 1.057 1.118a3.1 3.1 0 0 0 1.552.425h.054c.566-.01 1.115-.172 1.58-.466s.822-.707 1.03-1.186l9.912-22.59L53.82 88.2c.206.48.564.892 1.03 1.186s1.014.456 1.58.466a3.09 3.09 0 0 0 1.553-.423c.462-.273.83-.662 1.056-1.12l3.608-7.398 8.27 3.145c.517.2 1.088.253 1.64.156s1.06-.34 1.458-.7c.413-.365.697-.834.813-1.348s.06-1.047-.16-1.53zM28.65 60.073l.62.366.74.406.522.267a19.58 19.58 0 0 0 1.032.504l.272.12c.957.424 1.94.798 2.945 1.118h.14a22.83 22.83 0 0 0 1.337.396l.272.07c.413.11.826.198 1.24.287l.326.07a24.24 24.24 0 0 0 1.228.227h.228L31.3 82.69l-3.663-7.507-8.336 3.155 8.347-19.03.5.307.51.455zm27.605-3.175l-.163.08a11.52 11.52 0 0 1-.717.376l-.38.188-.5.237-.565.247-.304.128-.74.287h-.11a25.26 25.26 0 0 1-7.901 1.493H41.94l-.64-.1-.49-.06-.598-.09-.413-.07-.674-.13-.348-.07-.74-.168-.272-.07-.76-.208-.174-.05a24.47 24.47 0 0 1-2.597-.989h-.11l-.51-.237-.478-.218-.39-.198-.576-.307-.293-.168-.663-.386-.217-.13-.728-.475-.13-.09-.793-.564H29.3c-3.8-2.865-6.52-6.758-7.742-11.116s-.887-8.957.952-13.132 5.09-7.7 9.28-10.094 9.106-3.495 14.036-3.17 9.62 2.065 13.4 4.972 6.43 6.83 7.592 11.202.766 8.966-1.13 13.12-5.192 7.652-9.415 10v-.04zM53.07 63c.478-.148.946-.307 1.413-.475l.14-.05 1.326-.524.152-.07c.457-.198.924-.406 1.37-.633l.467-.237.772-.415c.272-.148.532-.307.793-.465l.39-.227.39-.237 8.238 18.79-8.336-3.155-3.663 7.507L48.3 64.01a30.98 30.98 0 0 0 4.771-1.019z" fill="#9d3bff"/><g fill="#00c4d1"><path d="M70.426 15.963c-3.4-3.285-7.505-5.9-12.06-7.68S48.9 5.6 43.94 5.608c-4.975.015-9.895.95-14.46 2.752s-8.68 4.428-12.092 7.722a2.11 2.11 0 0 0-.652 1.107c-.092.42-.046.855.133 1.25a2.23 2.23 0 0 0 .873.973 2.55 2.55 0 0 0 1.32.368 2.57 2.57 0 0 0 .948-.176c.3-.117.57-.3.8-.506 2.96-2.866 6.534-5.153 10.5-6.72S39.543 10 43.866 10s8.603.783 12.578 2.33 7.56 3.817 10.538 6.67a2.3 2.3 0 0 0 .755.493 2.48 2.48 0 0 0 .908.18 2.56 2.56 0 0 0 .913-.14 2.39 2.39 0 0 0 .782-.452 2.18 2.18 0 0 0 .557-.697c.132-.264.204-.55.213-.84s-.048-.578-.165-.848a2.15 2.15 0 0 0-.517-.722zM19.3 63.366l.5.425c.182.136.383.25.598.336l1.837-4.193c-5.3-4.506-8.726-10.523-9.74-17.05s.455-13.176 4.165-18.84a2.04 2.04 0 0 0 .31-.797c.045-.282.028-.57-.05-.844a2.06 2.06 0 0 0-.397-.762 2.29 2.29 0 0 0-.69-.563c-.54-.294-1.188-.38-1.8-.242s-1.137.493-1.462.984c-4.3 6.57-5.98 14.3-4.758 21.856S13.093 58.2 19.3 63.356v.01zm49.506 0l-.522.425c-.34.28-.703.534-1.087.76l-1.815-4.223c3.24-2.767 5.84-6.095 7.647-9.8s2.784-7.68 2.874-11.722c.012-5.222-1.532-10.348-4.467-14.835a2 2 0 0 1-.266-1.641c.154-.557.545-1.036 1.087-1.33s1.2-.382 1.803-.242 1.14.496 1.463 1c4.295 6.572 5.97 14.3 4.748 21.855S75 58.13 68.796 63.297v.07z"/></g><path d="M74.665 80.644L64.123 56.67c3.873-3.576 6.502-8.11 7.56-13.04s.497-10.03-1.613-14.67-5.674-8.61-10.25-11.418-9.957-4.326-15.474-4.366-10.926 1.4-15.55 4.138-8.26 6.658-10.45 11.266-2.843 9.7-1.873 14.644 3.52 9.516 7.328 13.15l-10.65 24.27a2.39 2.39 0 0 0-.143 1.504c.116.503.393.964.795 1.325s.907.603 1.458.7a3.1 3.1 0 0 0 1.64-.156l8.216-3.096 3.608 7.398c.228.457.595.845 1.057 1.118a3.1 3.1 0 0 0 1.552.425h.054c.566-.01 1.115-.172 1.58-.466s.822-.707 1.03-1.186l9.912-22.59L53.82 88.2c.206.48.564.892 1.03 1.186s1.014.456 1.58.466a3.09 3.09 0 0 0 1.553-.423c.462-.273.83-.662 1.056-1.12l3.608-7.398 8.27 3.145c.517.2 1.088.253 1.64.156s1.06-.34 1.458-.7c.413-.365.697-.834.813-1.348s.06-1.047-.16-1.53zM31.246 82.8l-3.663-7.507-8.336 3.155 8.347-19.03.5.307.554.346.62.366.74.406.522.267a19.58 19.58 0 0 0 1.032.504l.272.12c.957.424 1.94.798 2.945 1.118h.14a22.83 22.83 0 0 0 1.337.396l.272.07c.413.11.826.198 1.24.287l.326.07a24.24 24.24 0 0 0 1.228.227h.228l-8.303 18.9zm13.52-22.816H41.94l-.64-.148-.49-.06-.598-.09-.413-.07-.674-.13-.348-.07-.74-.168-.272-.07-.76-.208-.174-.05a24.47 24.47 0 0 1-2.597-.989h-.11l-.51-.237-.478-.218-.39-.198-.576-.307-.293-.168-.663-.386-.217-.13-.728-.475-.13-.09-.793-.564H29.3c-3.8-2.865-6.52-6.758-7.742-11.116s-.887-8.957.952-13.132 5.09-7.7 9.28-10.094 9.106-3.495 14.036-3.17 9.62 2.065 13.4 4.972 6.43 6.83 7.592 11.202.766 8.966-1.13 13.12-5.192 7.652-9.415 10l-.163.08c-.228.13-.467.257-.717.376l-.38.188-.5.237-.565.247-.304.13-.74.287h-.11c-2.518.913-5.192 1.418-7.9 1.493l-.11.01zm15.466 15.3L56.57 82.8l-8.227-18.79a30.95 30.95 0 0 0 4.728-1.048c.478-.148.946-.307 1.413-.475l.14-.05 1.326-.524.152-.07c.457-.198.924-.406 1.37-.633l.467-.237.772-.415c.272-.148.532-.307.793-.465l.39-.227.39-.237 8.238 18.79-8.292-3.125z" fill="#9d3bff"/></g><defs><clipPath id="A"><path fill="#fff" d="M0 0h90v90H0z"/></clipPath></defs></svg>
